X:1
T:D minor Oliver Holden, 1800
T:John Needham, 1768 88. 88. (L. M.)
T:Alibama No copyright. Transcribed from Plain Psalmody, 1800.
%%score [ 1 2 3 4 ]
L:1/8
M:4/4
K:F
V:1 treble nm="Voice"
V:2 treble nm="Voice"
V:3 treble-8 nm="Tenor"
V:4 bass nm="Bass"
V:1
 d4 A2 d2 | A2 d2 d2 ^c2 | d6 ^c2 | d2 B2 A2 B2 | A4 A4 | A6 A2 | G2 c2 c2 c2 | e4 d4 | c8 | %9
 d4 ^c2 A2 | A6 FG | A4 A4 | A8 |] %13
V:2
 D4 F2 F2 | F2 F2 F2 E2 | D6 E2 | F2 E2 D2 D2 | F4 E4 | D6 C2 | C2 F2 C2 F2 | E4 F4 | E8 | %9
w: 1.~Hark! 'Tis the|trum- pet's pier- cing|sound: The|ris- ing dead as-|sem- ble|round; In|long pro- ces- sion|see they|come,|
 F4 E2 E2 | F6 D2 | D4 ^C4 | D8 |] %13
w: Each to re-|ceive his|right- eous|doom.|
V:3
 A4 F2 A2 | d2 A2 F2 E2 | D6 E2 | F2 G2 A2 d2 | d4 ^c4 | d6 A2 | B2 A2 G2 F2 | c4 =B4 | c8 | %9
 (A2 d2) fe d^c | (d3 e f2) AG | F4 E4 | D8 |] %13
V:4
 D,4 D,2 D,2 | D,2 D,2 A,,2 A,,2 | D,6 A,,2 | D,2 E,2 F,2 G,2 | A,4 A,,4 | D,6 F,2 | %6
 G,2 F,2 E,2 F,2 | G,4 G,4 | C,8 | D,4 A,2 A,2 | (A,3 G, F,2) F,G, | A,4 A,,4 | D,8 |] %13

